X: 4228
T: Bluejay, The
R: jig
M: 6/8
K: Dmajor
A2 G|:FEF DFA|BGD' AD'E'|F'E'D' BAF|FED EAG|
FEF DD'C'|BGD' AD'F'|E'C'A GEA|1 MD3 DED:|2 MD3 D'C'D'||
|:E'C'A D'2F'|E'C'A D'C'D'|E'C'A D'BG|AEG FAD'|
E'C'A D'2F'|E'C'A E'F'G'|A'G'E' C'D'E'|1 D'3 D'C'D':|2 (D'3D') z2||

